X:1
T:A toye
T:A toye
T:Anónimo S. XVI
%%score { ( 1 2 ) | ( 3 4 ) }
L:1/8
Q:1/4=70
M:6/8
K:A
V:1 treble-8 nm="Guitar" snm="Guit."
V:2 treble-8 
V:3 tab stafflines=6 strings=E2,A2,D3,G3,B3,E4 nostems 
V:4 tab stafflines=6 strings=E2,A2,D3,G3,B3,E4 nostems 
V:1
"^Capo 2" c2 A c>de | f>ef B2 B | c>de e>fg | a2 e c A2 | c2 A c>de | f>ef B2 B | c>de e>fg | %7
 a2 e cA=g | f2 e dB=g | f2 e dB=g | f2 e f2 ^g | a2 e cA=g | f2 e dB=g | f2 e dB=g | f2 e f2 ^g | %15
 a2 e c A2 | c2 A c>de | f>ef B2 B | c>de e>fg | a2 e c A2 | c2 A c>de | f>ef B2 B | c>de e>fg | %23
 a2 e c !fermata!A2 |] %24
V:2
 A,6 | D3 E,3 | A,3 E,3 | A,3- A,2 A, | A,6 | D3 E,3 | A,3 E,3 | A,3- A,2 z | D6 | D6 | D3- D2 E, | %11
 A,3- A,2 A, | D6 | D6 | D3- D2 E, | A,3- A,2 A, | A,6 | D3 E,3 | A,3 E,3 | A,3- A,2 A, | A,6 | %21
 D3 E,3 | A,3 E,3 | A,3- A,2 !fermata!A, |] %24
V:3
 !2!C2 !3!A, !2!C3/2 !2!D/ !1!E | !1!F3/2 !1!E/ !1!F !2!B,2 !2!B, | %2
 !2!C3/2 !2!D/ !1!E !1!E3/2 !1!F/ !1!G | !1!A2 !1!E !2!C !3!A,2 | !2!C2 !3!A, !2!C3/2 !2!D/ !1!E | %5
 !1!F3/2 !1!E/ !1!F !2!B,2 !2!B, | !2!C3/2 !2!D/ !1!E !1!E3/2 !1!F/ !1!G | %7
 !1!A2 !1!E !2!C !3!A, !1!=G | !1!F2 !1!E !2!D !2!B, !1!=G | !1!F2 !1!E !2!D !2!B, !1!=G | %10
 !1!F2 !1!E !1!F2 !1!^G | !1!A2 !1!E !2!C !3!A, !1!=G | !1!F2 !1!E !2!D !2!B, !1!=G | %13
 !1!F2 !1!E !2!D !2!B, !1!=G | !1!F2 !1!E !1!F2 !1!^G | !1!A2 !1!E !2!C !3!A,2 | %16
 !2!C2 !3!A, !2!C3/2 !2!D/ !1!E | !1!F3/2 !1!E/ !1!F !2!B,2 !2!B, | %18
 !2!C3/2 !2!D/ !1!E !1!E3/2 !1!F/ !1!G | !1!A2 !1!E !2!C !3!A,2 | !2!C2 !3!A, !2!C3/2 !2!D/ !1!E | %21
 !1!F3/2 !1!E/ !1!F !2!B,2 !2!B, | !2!C3/2 !2!D/ !1!E !1!E3/2 !1!F/ !1!G | %23
 !1!A2 !1!E !2!C !fermata!!3!A,2 |] %24
V:4
 !5!A,,6 | !4!D,3 !6!E,,3 | !5!A,,3 !6!E,,3 | !5!A,,3- !5!A,,2 !5!A,, | !5!A,,6 | !4!D,3 !6!E,,3 | %6
 !5!A,,3 !6!E,,3 | !5!A,,3- !5!A,,2 x | !4!D,6 | !4!D,6 | !4!D,3- !4!D,2 !6!E,, | %11
 !5!A,,3- !5!A,,2 !5!A,, | !4!D,6 | !4!D,6 | !4!D,3- !4!D,2 !6!E,, | !5!A,,3- !5!A,,2 !5!A,, | %16
 !5!A,,6 | !4!D,3 !6!E,,3 | !5!A,,3 !6!E,,3 | !5!A,,3- !5!A,,2 !5!A,, | !5!A,,6 | !4!D,3 !6!E,,3 | %22
 !5!A,,3 !6!E,,3 | !5!A,,3- !5!A,,2 !fermata!!5!A,, |] %24

